storage/app/icons/phosphoricons/thin/device-mobile-thin.svg

<svg xmlns="http://www.w3.org/2000/svg" fill="currentColor" viewBox="0 0 256 256"><path d="M176 20H80a20 20 0 0 0-20 20v176a20 20 0 0 0 20 20h96a20 20 0 0 0 20-20V40a20 20 0 0 0-20-20M68 60h120v136H68Zm12-32h96a12 12 0 0 1 12 12v12H68V40a12 12 0 0 1 12-12m96 200H80a12 12 0 0 1-12-12v-12h120v12a12 12 0 0 1-12 12"/></svg>

<svg xmlns="http://www.w3.org/2000/svg" viewBox="0 0 256 256" fill="currentColor"><path d="M176,20H80A20,20,0,0,0,60,40V216a20,20,0,0,0,20,20h96a20,20,0,0,0,20-20V40A20,20,0,0,0,176,20ZM68,60H188V196H68ZM80,28h96a12,12,0,0,1,12,12V52H68V40A12,12,0,0,1,80,28Zm96,200H80a12,12,0,0,1-12-12V204H188v12A12,12,0,0,1,176,228Z"/></svg>
